icons/glyphs/glyph-art.svg

<?xml version="1.0" encoding="UTF-8" standalone="no"?><svg height="22" viewBox="0 0 22 22" width="22" xmlns="http://www.w3.org/2000/svg"><sodipodi:namedview/><metadata><rdf:RDF><cc:Work><dc:format>image/svg+xml</dc:format><dc:type/><dc:title/></cc:Work></rdf:RDF></metadata><path d="m10.626953.24414062c-.340287-.00625745-.6794299-.00222212-1.017578.01367188-6.5937963.30992867-11.0039119 6.820382-9.390625 12.1093755 2.1619307 7.087664 10.219166 10.92234 19.556641 9.365234 2.76489-.545804 1.290368-3.903824-.613282-3.560547-1.903646.343306-2.613909-2.7699-.539062-3.123047 2.07489-.352839 3.868226-2.920755 3.273437-6.4257811-.964276-5.6820453-6.16522-8.28504439-11.269531-8.37890628zm.359375 1.82617188a1.1802973 1.4355432 0 0 1 1.179688 1.4355469 1.1802973 1.4355432 0 0 1 -1.179688 1.4355468 1.1802973 1.4355432 0 0 1 -1.1796874-1.4355468 1.1802973 1.4355432 0 0 1 1.1796874-1.4355469zm5.363281 1.7441406a1.1802973 1.4355432 46.373965 0 1  .730469.3164063 1.1802973 1.4355432 46.373965 0 1 -.224609 1.8457031 1.1802973 1.4355432 46.373965 0 1 -1.853516.1347656 1.1802973 1.4355432 46.373965 0 1  .224609-1.84375 1.1802973 1.4355432 46.373965 0 1 1.123047-.453125zm-10.8046871.0488281a1.4355432 1.1802973 43.245698 0 1 1.0878906.4472657 1.4355432 1.1802973 43.245698 0 1  .2363281 1.84375 1.4355432 1.1802973 43.245698 0 1 -1.8535156-.125 1.4355432 1.1802973 43.245698 0 1 -.2363281-1.8417969 1.4355432 1.1802973 43.245698 0 1  .765625-.3242188zm-1.9003907 4.5859376a1.1802973 1.4355432 89.638655 0 1 1.4433594 1.171875 1.1802973 1.4355432 89.638655 0 1 -1.4277344 1.1894532 1.1802973 1.4355432 89.638655 0 1 -1.4433593-1.1718751 1.1802973 1.4355432 89.638655 0 1 1.4277343-1.1894531zm15.0195308.1738281a1.1802973 1.4355433 89.664697 0 1 1.441407 1.171875 1.1802973 1.4355433 89.664697 0 1 -1.427735 1.1894531 1.1802973 1.4355433 89.664697 0 1 -1.443359-1.171875 1.1802973 1.4355433 89.664697 0 1 1.429687-1.1894531z" fill="#fff" shape-rendering="crispEdges"/></svg>

<?xml version="1.0" encoding="UTF-8" standalone="no"?>
<!-- Created with Inkscape (http://www.inkscape.org/) -->

<svg
   xmlns:dc="http://purl.org/dc/elements/1.1/"
   xmlns:cc="http://creativecommons.org/ns#"
   xmlns:rdf="http://www.w3.org/1999/02/22-rdf-syntax-ns#"
   xmlns:svg="http://www.w3.org/2000/svg"
   xmlns="http://www.w3.org/2000/svg"
   xmlns:sodipodi="http://sodipodi.sourceforge.net/DTD/sodipodi-0.dtd"
   xmlns:inkscape="http://www.inkscape.org/namespaces/inkscape"
   width="22"
   height="22"
   viewBox="0 0 22 22"
   version="1.1"
   id="svg8"
   inkscape:version="0.92+devel 15675 custom"
   sodipodi:docname="glyph-art.svg">
  <defs
     id="defs2" />
  <sodipodi:namedview
     id="base"
     pagecolor="#002266"
     bordercolor="#ffffff"
     borderopacity="0.46666667"
     inkscape:pageopacity="0"
     inkscape:pageshadow="2"
     inkscape:zoom="13.081476"
     inkscape:cx="5.231759"
     inkscape:cy="12.794693"
     inkscape:document-units="px"
     inkscape:current-layer="svg8"
     inkscape:document-rotation="0"
     showgrid="false"
     inkscape:showpageshadow="false"
     borderlayer="true"
     units="px"
     fit-margin-top="0"
     fit-margin-left="0"
     fit-margin-right="0"
     fit-margin-bottom="0"
     inkscape:window-width="1920"
     inkscape:window-height="1051"
     inkscape:window-x="0"
     inkscape:window-y="0"
     inkscape:window-maximized="1" />
  <metadata
     id="metadata5">
    <rdf:RDF>
      <cc:Work
         rdf:about="">
        <dc:format>image/svg+xml</dc:format>
        <dc:type
           rdf:resource="http://purl.org/dc/dcmitype/StillImage" />
        <dc:title />
      </cc:Work>
    </rdf:RDF>
  </metadata>
  <path
     style="fill:#ffffff;fill-opacity:1;stroke:none;stroke-width:1.04782557;shape-rendering:crispEdges"
     d="M 10.626953 0.24414062 C 10.286666 0.23788317 9.9475231 0.2419185 9.609375 0.2578125 C 3.0155787 0.56774117 -1.3945369 7.0781945 0.21875 12.367188 C 2.3806807 19.454852 10.437916 23.289528 19.775391 21.732422 C 22.540281 21.186618 21.065759 17.828598 19.162109 18.171875 C 17.258463 18.515181 16.5482 15.401975 18.623047 15.048828 C 20.697937 14.695989 22.491273 12.128073 21.896484 8.6230469 C 20.932208 2.9410016 15.731264 0.33800251 10.626953 0.24414062 z M 10.986328 2.0703125 A 1.1802973 1.4355432 0 0 1 12.166016 3.5058594 A 1.1802973 1.4355432 0 0 1 10.986328 4.9414062 A 1.1802973 1.4355432 0 0 1 9.8066406 3.5058594 A 1.1802973 1.4355432 0 0 1 10.986328 2.0703125 z M 16.349609 3.8144531 A 1.1802973 1.4355432 46.373965 0 1 17.080078 4.1308594 A 1.1802973 1.4355432 46.373965 0 1 16.855469 5.9765625 A 1.1802973 1.4355432 46.373965 0 1 15.001953 6.1113281 A 1.1802973 1.4355432 46.373965 0 1 15.226562 4.2675781 A 1.1802973 1.4355432 46.373965 0 1 16.349609 3.8144531 z M 5.5449219 3.8632812 A 1.4355432 1.1802973 43.245698 0 1 6.6328125 4.3105469 A 1.4355432 1.1802973 43.245698 0 1 6.8691406 6.1542969 A 1.4355432 1.1802973 43.245698 0 1 5.015625 6.0292969 A 1.4355432 1.1802973 43.245698 0 1 4.7792969 4.1875 A 1.4355432 1.1802973 43.245698 0 1 5.5449219 3.8632812 z M 3.6445312 8.4492188 A 1.1802973 1.4355432 89.638655 0 1 5.0878906 9.6210938 A 1.1802973 1.4355432 89.638655 0 1 3.6601562 10.810547 A 1.1802973 1.4355432 89.638655 0 1 2.2167969 9.6386719 A 1.1802973 1.4355432 89.638655 0 1 3.6445312 8.4492188 z M 18.664062 8.6230469 A 1.1802973 1.4355433 89.664697 0 1 20.105469 9.7949219 A 1.1802973 1.4355433 89.664697 0 1 18.677734 10.984375 A 1.1802973 1.4355433 89.664697 0 1 17.234375 9.8125 A 1.1802973 1.4355433 89.664697 0 1 18.664062 8.6230469 z "
     id="path7750"
     inkscape:label="glyph" />
</svg>
